blog/2022/03-03-aggregating-search-data/img/carz_structure.svg

<svg xmlns="http://www.w3.org/2000/svg" xmlns:xl="http://www.w3.org/1999/xlink" width="361pt" height="283pt" version="1.1" viewBox="319 188 361 283"><defs><font-face x-height="517" ascent="975.006" cap-height="714" descent="-216.995" font-family="Helvetica Neue" font-size="12" font-weight="bold" panose-1="2 0 8 3 0 0 0 9 0 4" slope="0" underline-position="-100" underline-thickness="50" units-per-em="1000"><font-face-src><font-face-name name="HelveticaNeue-Bold"/></font-face-src></font-face><marker id="FilledArrow_Marker" color="#a5a5a5" markerHeight="8" markerUnits="strokeWidth" markerWidth="10" orient="auto" overflow="visible" viewBox="-1 -4 10 8"><g><path fill="currentColor" stroke="currentColor" stroke-width="1" d="M 8 0 L 0 -3 L 0 3 Z"/></g></marker></defs><g fill="none" fill-opacity="1" stroke="none" stroke-dasharray="none" stroke-opacity="1"><title>Canvas 1</title><g><title>Layer 1</title><path fill="#ffffc0" d="M 568.5 250.5 L 670 250.5 C 674.9706 250.5 679 254.52944 679 259.5 L 679 270 C 679 274.97056 674.9706 279 670 279 L 568.5 279 C 563.52944 279 559.5 274.97056 559.5 270 L 559.5 259.5 C 559.5 254.52944 563.52944 250.5 568.5 250.5 Z"/><path stroke="#000" stroke-linecap="round" stroke-linejoin="round" stroke-width="1" d="M 568.5 250.5 L 670 250.5 C 674.9706 250.5 679 254.52944 679 259.5 L 679 270 C 679 274.97056 674.9706 279 670 279 L 568.5 279 C 563.52944 279 559.5 274.97056 559.5 270 L 559.5 259.5 C 559.5 254.52944 563.52944 250.5 568.5 250.5 Z"/><text fill="#000" transform="translate(564.5 257.07596)"><tspan x="2.646" y="12" font-family="Helvetica Neue" font-size="12" font-weight="bold" textLength="104.208">aws_ec2_instance</tspan></text><path fill="#ccc" d="M 329 312 L 422.5168 312 C 427.48737 312 431.5168 316.02944 431.5168 321 L 431.5168 331.5 C 431.5168 336.47056 427.48737 340.5 422.5168 340.5 L 329 340.5 C 324.02944 340.5 320 336.47056 320 331.5 L 320 321 C 320 316.02944 324.02944 312 329 312 Z"/><path stroke="#000" stroke-linecap="round" stroke-linejoin="round" stroke-width="1" d="M 329 312 L 422.5168 312 C 427.48737 312 431.5168 316.02944 431.5168 321 L 431.5168 331.5 C 431.5168 336.47056 427.48737 340.5 422.5168 340.5 L 329 340.5 C 324.02944 340.5 320 336.47056 320 331.5 L 320 321 C 320 316.02944 324.02944 312 329 312 Z"/><text fill="#000" transform="translate(325 318.57596)"><tspan x="32.542" y="12" font-family="Helvetica Neue" font-size="12" font-weight="bold" textLength="36.432">region</tspan></text><path fill="#ccc" d="M 329 250.5 L 422.5168 250.5 C 427.48737 250.5 431.5168 254.52944 431.5168 259.5 L 431.5168 270 C 431.5168 274.97056 427.48737 279 422.5168 279 L 329 279 C 324.02944 279 320 274.97056 320 270 L 320 259.5 C 320 254.52944 324.02944 250.5 329 250.5 Z"/><path stroke="#000" stroke-linecap="round" stroke-linejoin="round" stroke-width="1" d="M 329 250.5 L 422.5168 250.5 C 427.48737 250.5 431.5168 254.52944 431.5168 259.5 L 431.5168 270 C 431.5168 274.97056 427.48737 279 422.5168 279 L 329 279 C 324.02944 279 320 274.97056 320 270 L 320 259.5 C 320 254.52944 324.02944 250.5 329 250.5 Z"/><text fill="#000" transform="translate(325 257.07596)"><tspan x="27.532" y="12" font-family="Helvetica Neue" font-size="12" font-weight="bold" textLength="46.452">account</tspan></text><line x1="375.758" x2="375.758" y1="279" y2="302.1" stroke="#a5a5a5" stroke-linecap="round" stroke-linejoin="round" stroke-width="1" marker-end="url(#FilledArrow_Marker)"/><line x1="427.135" x2="555.642" y1="313.274" y2="280.816" stroke="#a5a5a5" stroke-linecap="round" stroke-linejoin="round" stroke-width="1" marker-end="url(#FilledArrow_Marker)"/><path fill="#ffffc0" d="M 568.5 441.5 L 670 441.5 C 674.9706 441.5 679 445.52944 679 450.5 L 679 461 C 679 465.97056 674.9706 470 670 470 L 568.5 470 C 563.52944 470 559.5 465.97056 559.5 461 L 559.5 450.5 C 559.5 445.52944 563.52944 441.5 568.5 441.5 Z"/><path stroke="#000" stroke-linecap="round" stroke-linejoin="round" stroke-width="1" d="M 568.5 441.5 L 670 441.5 C 674.9706 441.5 679 445.52944 679 450.5 L 679 461 C 679 465.97056 674.9706 470 670 470 L 568.5 470 C 563.52944 470 559.5 465.97056 559.5 461 L 559.5 450.5 C 559.5 445.52944 563.52944 441.5 568.5 441.5 Z"/><text fill="#000" transform="translate(564.5 448.07596)"><tspan x="16.644" y="12" font-family="Helvetica Neue" font-size="12" font-weight="bold" textLength="76.212">gcp_instance</tspan></text><path fill="#ccc" d="M 329 373.5 L 422.5168 373.5 C 427.48737 373.5 431.5168 377.52944 431.5168 382.5 L 431.5168 393 C 431.5168 397.97056 427.48737 402 422.5168 402 L 329 402 C 324.02944 402 320 397.97056 320 393 L 320 382.5 C 320 377.52944 324.02944 373.5 329 373.5 Z"/><path stroke="#000" stroke-linecap="round" stroke-linejoin="round" stroke-width="1" d="M 329 373.5 L 422.5168 373.5 C 427.48737 373.5 431.5168 377.52944 431.5168 382.5 L 431.5168 393 C 431.5168 397.97056 427.48737 402 422.5168 402 L 329 402 C 324.02944 402 320 397.97056 320 393 L 320 382.5 C 320 377.52944 324.02944 373.5 329 373.5 Z"/><text fill="#000" transform="translate(325 380.07596)"><tspan x="36.976" y="12" font-family="Helvetica Neue" font-size="12" font-weight="bold" textLength="27.564">zone</tspan></text><line x1="425.26" x2="558.702" y1="401.574" y2="438.841" stroke="#a5a5a5" stroke-linecap="round" stroke-linejoin="round" stroke-width="1" marker-end="url(#FilledArrow_Marker)"/><line x1="375.758" x2="375.758" y1="340.5" y2="363.6" stroke="#a5a5a5" stroke-linecap="round" stroke-linejoin="round" stroke-width="1" marker-end="url(#FilledArrow_Marker)"/><path fill="#ccc" d="M 329 189 L 422.5168 189 C 427.48737 189 431.5168 193.02944 431.5168 198 L 431.5168 208.5 C 431.5168 213.47056 427.48737 217.5 422.5168 217.5 L 329 217.5 C 324.02944 217.5 320 213.47056 320 208.5 L 320 198 C 320 193.02944 324.02944 189 329 189 Z"/><path stroke="#000" stroke-linecap="round" stroke-linejoin="round" stroke-width="1" d="M 329 189 L 422.5168 189 C 427.48737 189 431.5168 193.02944 431.5168 198 L 431.5168 208.5 C 431.5168 213.47056 427.48737 217.5 422.5168 217.5 L 329 217.5 C 324.02944 217.5 320 213.47056 320 208.5 L 320 198 C 320 193.02944 324.02944 189 329 189 Z"/><text fill="#000" transform="translate(325 195.57596)"><tspan x="34.876" y="12" font-family="Helvetica Neue" font-size="12" font-weight="bold" textLength="31.764">cloud</tspan></text><line x1="375.758" x2="375.758" y1="217.5" y2="240.6" stroke="#a5a5a5" stroke-linecap="round" stroke-linejoin="round" stroke-width="1" marker-end="url(#FilledArrow_Marker)"/><path fill="#ffc0ff" d="M 480 346 L 573.5168 346 C 578.4874 346 582.5168 350.02944 582.5168 355 L 582.5168 365.5 C 582.5168 370.47056 578.4874 374.5 573.5168 374.5 L 480 374.5 C 475.02944 374.5 471 370.47056 471 365.5 L 471 355 C 471 350.02944 475.02944 346 480 346 Z"/><path stroke="#000" stroke-linecap="round" stroke-linejoin="round" stroke-width="1" d="M 480 346 L 573.5168 346 C 578.4874 346 582.5168 350.02944 582.5168 355 L 582.5168 365.5 C 582.5168 370.47056 578.4874 374.5 573.5168 374.5 L 480 374.5 C 475.02944 374.5 471 370.47056 471 365.5 L 471 355 C 471 350.02944 475.02944 346 480 346 Z"/><text fill="#000" transform="translate(476 352.57596)"><tspan x="11.092" y="12" font-family="Helvetica Neue" font-size="12" font-weight="bold" textLength="79.332">instance_type</tspan></text><line x1="430.214" x2="462.563" y1="377.833" y2="371.941" stroke="#a5a5a5" stroke-linecap="round" stroke-linejoin="round" stroke-width="1" marker-end="url(#FilledArrow_Marker)"/><line x1="428.587" x2="464.272" y1="338.145" y2="346.18" stroke="#a5a5a5" stroke-linecap="round" stroke-linejoin="round" stroke-width="1" marker-end="url(#FilledArrow_Marker)"/><line x1="540.559" x2="598.561" y1="346" y2="286.111" stroke="#a5a5a5" stroke-linecap="round" stroke-linejoin="round" stroke-width="1" marker-end="url(#FilledArrow_Marker)"/><line x1="540.559" x2="598.561" y1="374.5" y2="434.389" stroke="#a5a5a5" stroke-linecap="round" stroke-linejoin="round" stroke-width="1" marker-end="url(#FilledArrow_Marker)"/></g></g></svg>

<svg xmlns="http://www.w3.org/2000/svg" width="361pt" height="283pt" viewBox="319 188 361 283"><defs><marker id="a" color="#a5a5a5" markerHeight="8" markerUnits="strokeWidth" markerWidth="10" orient="auto" overflow="visible" viewBox="-1 -4 10 8"><path fill="currentColor" stroke="currentColor" d="M8 0 0-3v6Z"/></marker></defs><g fill="none"><path fill="#ffffc0" d="M568.5 250.5H670a9 9 0 0 1 9 9V270a9 9 0 0 1-9 9H568.5a9 9 0 0 1-9-9v-10.5a9 9 0 0 1 9-9Z"/><path stroke="#000" stroke-linecap="round" stroke-linejoin="round" d="M568.5 250.5H670a9 9 0 0 1 9 9V270a9 9 0 0 1-9 9H568.5a9 9 0 0 1-9-9v-10.5a9 9 0 0 1 9-9Z"/><text fill="#000" transform="translate(564.5 257.076)"><tspan x="2.646" y="12" font-family="Helvetica Neue" font-size="12" font-weight="bold" textLength="104.208">aws_ec2_instance</tspan></text><path fill="#ccc" d="M329 312h93.517a9 9 0 0 1 9 9v10.5a9 9 0 0 1-9 9H329a9 9 0 0 1-9-9V321a9 9 0 0 1 9-9Z"/><path stroke="#000" stroke-linecap="round" stroke-linejoin="round" d="M329 312h93.517a9 9 0 0 1 9 9v10.5a9 9 0 0 1-9 9H329a9 9 0 0 1-9-9V321a9 9 0 0 1 9-9Z"/><text fill="#000" transform="translate(325 318.576)"><tspan x="32.542" y="12" font-family="Helvetica Neue" font-size="12" font-weight="bold" textLength="36.432">region</tspan></text><path fill="#ccc" d="M329 250.5h93.517a9 9 0 0 1 9 9V270a9 9 0 0 1-9 9H329a9 9 0 0 1-9-9v-10.5a9 9 0 0 1 9-9Z"/><path stroke="#000" stroke-linecap="round" stroke-linejoin="round" d="M329 250.5h93.517a9 9 0 0 1 9 9V270a9 9 0 0 1-9 9H329a9 9 0 0 1-9-9v-10.5a9 9 0 0 1 9-9Z"/><text fill="#000" transform="translate(325 257.076)"><tspan x="27.532" y="12" font-family="Helvetica Neue" font-size="12" font-weight="bold" textLength="46.452">account</tspan></text><path stroke="#a5a5a5" stroke-linecap="round" stroke-linejoin="round" marker-end="url(#a)" d="M375.758 279v23.1"/><path stroke="#a5a5a5" stroke-linecap="round" stroke-linejoin="round" marker-end="url(#a)" d="m427.135 313.274 128.507-32.458"/><path fill="#ffffc0" d="M568.5 441.5H670a9 9 0 0 1 9 9V461a9 9 0 0 1-9 9H568.5a9 9 0 0 1-9-9v-10.5a9 9 0 0 1 9-9Z"/><path stroke="#000" stroke-linecap="round" stroke-linejoin="round" d="M568.5 441.5H670a9 9 0 0 1 9 9V461a9 9 0 0 1-9 9H568.5a9 9 0 0 1-9-9v-10.5a9 9 0 0 1 9-9Z"/><text fill="#000" transform="translate(564.5 448.076)"><tspan x="16.644" y="12" font-family="Helvetica Neue" font-size="12" font-weight="bold" textLength="76.212">gcp_instance</tspan></text><path fill="#ccc" d="M329 373.5h93.517a9 9 0 0 1 9 9V393a9 9 0 0 1-9 9H329a9 9 0 0 1-9-9v-10.5a9 9 0 0 1 9-9Z"/><path stroke="#000" stroke-linecap="round" stroke-linejoin="round" d="M329 373.5h93.517a9 9 0 0 1 9 9V393a9 9 0 0 1-9 9H329a9 9 0 0 1-9-9v-10.5a9 9 0 0 1 9-9Z"/><text fill="#000" transform="translate(325 380.076)"><tspan x="36.976" y="12" font-family="Helvetica Neue" font-size="12" font-weight="bold" textLength="27.564">zone</tspan></text><path stroke="#a5a5a5" stroke-linecap="round" stroke-linejoin="round" marker-end="url(#a)" d="m425.26 401.574 133.442 37.267"/><path stroke="#a5a5a5" stroke-linecap="round" stroke-linejoin="round" marker-end="url(#a)" d="M375.758 340.5v23.1"/><path fill="#ccc" d="M329 189h93.517a9 9 0 0 1 9 9v10.5a9 9 0 0 1-9 9H329a9 9 0 0 1-9-9V198a9 9 0 0 1 9-9Z"/><path stroke="#000" stroke-linecap="round" stroke-linejoin="round" d="M329 189h93.517a9 9 0 0 1 9 9v10.5a9 9 0 0 1-9 9H329a9 9 0 0 1-9-9V198a9 9 0 0 1 9-9Z"/><text fill="#000" transform="translate(325 195.576)"><tspan x="34.876" y="12" font-family="Helvetica Neue" font-size="12" font-weight="bold" textLength="31.764">cloud</tspan></text><path stroke="#a5a5a5" stroke-linecap="round" stroke-linejoin="round" marker-end="url(#a)" d="M375.758 217.5v23.1"/><path fill="#ffc0ff" d="M480 346h93.517a9 9 0 0 1 9 9v10.5a9 9 0 0 1-9 9H480a9 9 0 0 1-9-9V355a9 9 0 0 1 9-9Z"/><path stroke="#000" stroke-linecap="round" stroke-linejoin="round" d="M480 346h93.517a9 9 0 0 1 9 9v10.5a9 9 0 0 1-9 9H480a9 9 0 0 1-9-9V355a9 9 0 0 1 9-9Z"/><text fill="#000" transform="translate(476 352.576)"><tspan x="11.092" y="12" font-family="Helvetica Neue" font-size="12" font-weight="bold" textLength="79.332">instance_type</tspan></text><path stroke="#a5a5a5" stroke-linecap="round" stroke-linejoin="round" marker-end="url(#a)" d="m430.214 377.833 32.349-5.892"/><path stroke="#a5a5a5" stroke-linecap="round" stroke-linejoin="round" marker-end="url(#a)" d="m428.587 338.145 35.685 8.035"/><path stroke="#a5a5a5" stroke-linecap="round" stroke-linejoin="round" marker-end="url(#a)" d="m540.559 346 58.002-59.889"/><path stroke="#a5a5a5" stroke-linecap="round" stroke-linejoin="round" marker-end="url(#a)" d="m540.559 374.5 58.002 59.889"/></g></svg>
